X:1
T:The Top of Maol
M:2/4
L:1/8
O:Trad. (3.9.2014/NS)
K:Em
|: "Em" E2 EG/A/ | BA FE | "D" D2 DF/G/        |      AF ED  |
   "Em" E2 EG/A/ | BA FA | "D" B/c/d/B/ "D" AF | "Em" E2 EA :|
|  "Em" Be ed/e/ | fe dA | "D" Bc de           |      dB BA  |
   "C"  Be ed/e/ | fe dA | "G" B/c/d/B/ "D" AF | "Em" E2 E2 :|
